casedrop/img/footer/icons/key.svg

<svg width="48" height="49" viewBox="0 0 48 49" fill="none" xmlns="http://www.w3.org/2000/svg">
<path d="M18.4887 35.7815L16.2097 36.2037L16.2085 36.2051L18.4887 35.7815ZM18.4887 35.7815C18.9419 35.6983 19.2834 35.3226 19.3251 34.8641L18.4887 35.7815ZM20.7808 23.7209L21.0295 23.4481L20.8421 23.1301C18.3936 18.9764 18.8109 13.5489 22.229 9.80015C26.4281 5.19471 33.5652 4.86573 38.1702 9.06457C42.7757 13.2637 43.1049 20.4003 38.9058 25.0058C35.8953 28.3076 31.3742 29.4119 27.3577 28.2235L27.0573 28.1346L26.8463 28.3661L24.3569 31.0963C24.2782 31.1827 24.1734 31.24 24.0584 31.2597L24.0571 31.26L20.2244 31.9289L20.2239 31.929C19.5443 32.0484 19.0286 32.608 18.9656 33.2951L18.9656 33.2955L18.8271 34.8189L18.8271 34.8189C18.8057 35.0548 18.6301 35.2471 18.3984 35.2897L18.3976 35.2898L16.1187 35.712L15.9535 35.7426L15.8403 35.8668L15.839 35.8682L15.7258 35.9923L15.7105 36.1597L15.5001 38.4692C15.4785 38.7046 15.3033 38.8967 15.071 38.9398L15.0708 38.9399L9.19027 40.0354C8.90764 40.0879 8.63547 39.905 8.57707 39.6248L8.577 39.6245L8.20353 37.8397L8.20351 37.8396C8.16876 37.6736 8.21576 37.5016 8.33027 37.376L20.7808 23.7209ZM11.2975 38.5372L11.667 38.8741L12.0039 38.5046L22.9972 26.4478L23.334 26.0783L22.9646 25.7414C22.6687 25.4717 22.3907 25.189 22.1293 24.8956L21.7603 24.4814L21.3865 24.8913L10.3495 36.9962L10.0126 37.3657L10.3821 37.7025L11.2975 38.5372ZM32.429 11.0751C31.3259 12.285 31.4131 14.1603 32.6228 15.2632C33.8323 16.3661 35.7078 16.2802 36.8108 15.0704C37.9144 13.86 37.8273 11.9848 36.6176 10.8819C35.4079 9.77884 33.5325 9.86484 32.429 11.0751Z" fill="#2B59FF" stroke="black"/>
</svg>

<svg width="48" height="49" fill="none" xmlns="http://www.w3.org/2000/svg"><path d="M18.489 35.782l-2.28.422v.001l2.28-.423zm0 0c.453-.084.794-.46.836-.918l-.836.918zM20.78 23.72l.248-.273-.187-.318c-2.448-4.154-2.031-9.581 1.387-13.33 4.2-4.605 11.336-4.934 15.941-.735 4.606 4.199 4.935 11.335.736 15.94a11.284 11.284 0 01-11.548 3.219l-.3-.09-.212.232-2.49 2.73a.523.523 0 01-.298.164h0l-3.834.669h0a1.53 1.53 0 00-1.258 1.366h0l-.139 1.524h0a.527.527 0 01-.429.47h0l-2.28.423-.164.03-.114.125-.001.001-.113.124-.016.168-.21 2.31a.527.527 0 01-.429.47h0l-5.88 1.095a.528.528 0 01-.614-.41h0l-.373-1.785h0a.527.527 0 01.126-.464l12.45-13.655zm-9.483 14.816l.369.337.337-.37 10.993-12.056.337-.37-.37-.337a11.44 11.44 0 01-.835-.845l-.369-.415-.373.41L10.35 36.996l-.337.37.37.337.915.834zm21.131-27.462a2.965 2.965 0 104.382 3.994 2.965 2.965 0 00-4.382-3.994z" fill="#2B59FF" stroke="#000"/></svg>
